icons/fill-new-other-no-smoking.svg

<svg xmlns="http://www.w3.org/2000/svg" width="32px" height="32px" viewBox="0 0 32 32" version="1.1">
    <title>fill-new-other-no-smoking</title>
    <g id="fill-new-other-no-smoking" stroke-width="1" fill-rule="evenodd">
        <path d="M3,17 C3.55228475,17 4,17.4477153 4,18 L4,24 C4,24.5522847 3.55228475,25 3,25 C2.44771525,25 2,24.5522847 2,24 L2,18 C2,17.4477153 2.44771525,17 3,17 Z M5,6.5 C5.55228475,6.5 6,6.94771525 6,7.5 L6,11.5 C6,12.0522847 5.55228475,12.5 5,12.5 C4.44771525,12.5 4,12.0522847 4,11.5 L4,7.5 C4,6.94771525 4.44771525,6.5 5,6.5 Z M9,3 C9.55228475,3 10,3.44771525 10,4 L10,11.5 C10,12.0522847 9.55228475,12.5 9,12.5 C8.44771525,12.5 8,12.0522847 8,11.5 L8,4 C8,3.44771525 8.44771525,3 9,3 Z M23.7071068,13.2928932 C24.0976311,13.6834175 24.0976311,14.3165825 23.7071068,14.7071068 L9.70710678,28.7071068 C9.31658249,29.0976311 8.68341751,29.0976311 8.29289322,28.7071068 C7.90236893,28.3165825 7.90236893,27.6834175 8.29289322,27.2928932 L10.584,25 L7,25 C6.44771525,25 6,24.5522847 6,24 L6,18 C6,17.4477153 6.44771525,17 7,17 L18.584,17 L22.2928932,13.2928932 C22.6834175,12.9023689 23.3165825,12.9023689 23.7071068,13.2928932 Z M22,19.243 L22,25 L16.242,25 L22,19.243 Z M29,17 C29.5522847,17 30,17.4477153 30,18 L30,24 C30,24.5522847 29.5522847,25 29,25 L24,25 L24,17.243 L24.243,17 L29,17 Z" id="&#24418;&#29366;" fill-rule="nonzero" />
    </g>
</svg>

<svg xmlns="http://www.w3.org/2000/svg" viewBox="0 0 32 32"><path fill="currentColor" d="M3 17a1 1 0 0 1 1 1v6a1 1 0 0 1-2 0v-6a1 1 0 0 1 1-1M5 6.5a1 1 0 0 1 1 1v4a1 1 0 0 1-2 0v-4a1 1 0 0 1 1-1M9 3a1 1 0 0 1 1 1v7.5a1 1 0 0 1-2 0V4a1 1 0 0 1 1-1m14.707 10.293a1 1 0 0 1 0 1.414l-14 14a1 1 0 1 1-1.414-1.414L10.584 25H7a1 1 0 0 1-1-1v-6a1 1 0 0 1 1-1h11.584l3.709-3.707a1 1 0 0 1 1.414 0M22 19.243V25h-5.758zM29 17a1 1 0 0 1 1 1v6a1 1 0 0 1-1 1h-5v-7.757l.243-.243z"/></svg>
